X:138
T:Peggy Band
M:6/8
L:1/8
B:Thompson's Compleat Collection of 200 Favourite Country Dances, vol. 3 (London, 1773)
Z:Transcribed and edited by Flynn Titford-Mock, 2007
Z:abc's:AK/Fiddler's Companion
K:G
d | B2c d2g | B2c d2g | gfe dcB | "tr"B3 A2d | B2c d2g | B2c d2g | fed de^c | (d3 d2) :|
|: B/c/ | d>ed B2d | (d3 c2) A/B/ | c>dc ABc | (c3 B2)d | g2G GAG | g2G G2e | dcB BcA | (G3 G2) :|

